actions/24/edit-copy-path.svg

<!DOCTYPE svg>
<svg xmlns="http://www.w3.org/2000/svg" viewBox="0 0 24 24" version="1.1" width="24" height="24">
  <defs>
    <style type="text/css" id="current-color-scheme">.ColorScheme-Text {color:#fcfcfc;}</style>
  </defs>
  <g transform="translate(1,1)">
    <path class="ColorScheme-Text" style="fill:currentColor; fill-opacity:1; stroke:none" d="M 2,3 V 4 H 4 V 18 H 2 v 1 H 7 V 18 H 5 V 4 H 7 V 3 Z m 6,1 v 1 h 8 c 0,0 2,0 2,2 0,2 0,6 0,8 0,2 -2,2 -2,2 H 8 v 1 h 8 c 0,0 3,0 3,-3 0,-3 0,-5 0,-8 0,-3 -3,-3 -3,-3 z m 5,2 -4,10 h 1 L 14,6 Z m 3,0 -4,10 h 1 L 17,6 Z m -9,9 v 1 h 1 v -1 z"/>
  </g>
</svg>

<!DOCTYPE svg>
<svg xmlns="http://www.w3.org/2000/svg" viewBox="0 0 24 24" version="1.1" width="24" height="24">
  <defs>
    <style type="text/css" id="current-color-scheme">
            .ColorScheme-Text {
                color:#eff0f1;
            }
        </style>
  </defs>
  <g transform="translate(1,1)">
    <path class="ColorScheme-Text" style="fill:currentColor; fill-opacity:1; stroke:none" d="M 2 3 L 2 4 L 4 4 L 4 18 L 2 18 L 2 19 L 7 19 L 7 18 L 5 18 L 5 4 L 7 4 L 7 3 L 2 3 z M 8 4 L 8 5 L 18 5 L 18 17 L 8 17 L 8 18 L 19 18 L 19 4 L 8 4 z M 13 6 L 9 16 L 10 16 L 14 6 L 13 6 z M 16 6 L 12 16 L 13 16 L 17 6 L 16 6 z M 7 15 L 7 16 L 8 16 L 8 15 L 7 15 z "/>
  </g>
</svg>
